img/feature-icon-03.svg

<svg width="60" height="60" viewBox="0 0 60 60" fill="none" xmlns="http://www.w3.org/2000/svg">
<g clip-path="url(#clip0)">
<path d="M19.0635 23.3911C18.9035 23.0771 18.5905 22.8711 18.2395 22.8481L9.8272 22.2872C9.39127 22.2442 8.98826 22.5142 8.82924 22.9201L2.76473 38.4189C2.60172 38.8349 2.73473 39.3079 3.09074 39.5788C3.26875 39.7148 3.48273 39.7829 3.69566 39.7829C3.90659 39.7829 4.11765 39.7169 4.29565 39.5829L9.32928 35.8083L12.2601 36.3942C12.7381 36.4892 13.216 36.2272 13.39 35.7703C14.9639 31.6476 16.8587 27.8139 19.0195 24.3772C19.2066 24.079 19.2236 23.704 19.0635 23.3911ZM11.828 34.2682L9.28228 33.7593C9.00432 33.7043 8.71428 33.7703 8.48635 33.9402L5.90755 35.874L10.4241 24.3309L16.4617 24.7329C14.7218 27.6777 13.1679 30.8754 11.828 34.2682Z" fill="#EF2A82"/>
<path d="M37.713 50.1741L37.152 41.7607C37.128 41.4086 36.922 41.0957 36.6081 40.9357C36.2951 40.7757 35.9201 40.7916 35.6222 40.9796C32.1844 43.1404 28.3517 45.0353 24.2291 46.6091C23.7731 46.7821 23.5091 47.2601 23.6052 47.739L24.1911 50.6699L20.4164 55.7024C20.1484 56.0604 20.1495 56.5524 20.4204 56.9084C20.6134 57.1623 20.9104 57.3033 21.2163 57.3033C21.3383 57.3033 21.4614 57.2803 21.5813 57.2363L37.0801 51.1718C37.486 51.013 37.742 50.6089 37.713 50.1741ZM24.125 54.0908L26.0588 51.512C26.2289 51.285 26.2948 50.9951 26.2388 50.716L25.7299 48.1712C29.1236 46.8313 32.3203 45.2774 35.2651 43.5376L35.6681 49.5741L24.125 54.0908Z" fill="#EF2A82"/>
<path d="M28.9978 30.0005H22.2603C21.8974 30.0005 21.5634 30.1975 21.3863 30.5145L12.9299 45.7094C12.71 46.1054 12.7839 46.6013 13.1099 46.9153C13.301 47.0993 13.5519 47.1953 13.8039 47.1953C13.9819 47.1953 14.1609 47.1483 14.3208 47.0503L29.5157 37.8551C29.8146 37.6741 29.9977 37.3501 29.9977 37.0002V31.0005C29.9978 30.4486 29.5498 30.0005 28.9978 30.0005ZM27.998 36.4371L16.5099 43.3896L22.8474 32.0014V32.0003H27.998V36.4371Z" fill="#EF2A82"/>
<path d="M59.9496 0.96374C59.9086 0.47683 59.5227 0.0908184 59.0356 0.0498031C58.7037 0.0237878 25.7752 -2.27506 11.5223 35.0562C11.3813 35.4252 11.4703 35.8411 11.7493 36.1201L16.5039 40.8747C16.7269 41.0977 17.0389 41.1997 17.3519 41.1577C17.6629 41.1127 17.9349 40.9248 18.0869 40.6497L22.8505 32.0004H27.9981V36.4491L19.2968 41.9426C19.0398 42.1056 18.8708 42.3756 18.8369 42.6776C18.8029 42.9796 18.9088 43.2805 19.1239 43.4956L23.8785 48.2502C24.0695 48.4412 24.3245 48.5432 24.5854 48.5432C24.7054 48.5432 24.8264 48.5222 24.9424 48.4772C62.2754 34.2232 59.9776 1.29479 59.9496 0.96374ZM54.704 18.7045C51.1952 27.3857 43.1658 39.1879 24.8322 46.3764L21.4225 42.9666L29.5319 37.847C29.8218 37.663 29.9978 37.344 29.9978 37.001V31.0014C29.9978 30.4495 29.5498 30.0015 28.9979 30.0015H22.2584C21.8934 30.0015 21.5584 30.2004 21.3824 30.5194L16.9757 38.5208L13.623 35.167C26.1351 3.24758 52.8051 1.94166 57.9896 2.01467C58.0267 4.34656 57.8127 11.012 54.704 18.7045Z" fill="#EF2A82"/>
<path d="M17.1287 44.1645C16.9116 43.8766 16.5657 43.7365 16.2267 43.7725C16.2617 43.4325 16.1217 43.0876 15.8347 42.8705C14.3269 41.7307 12.381 41.3517 10.4942 41.8296C8.49133 42.3385 6.85342 43.7044 6.00147 45.5793L0.0900048 58.5853C-0.0829623 58.9652 -0.00198652 59.4123 0.292972 59.7062C0.483985 59.8982 0.73992 59.9992 0.999957 59.9992C1.13999 59.9992 1.28097 59.9692 1.41398 59.9092L14.42 53.9967C16.2938 53.1458 17.6598 51.5079 18.1687 49.505C18.6476 47.6202 18.2687 45.6734 17.1287 44.1645ZM16.2308 49.0131C15.8728 50.424 14.9109 51.5769 13.593 52.1769L3.0138 56.9855L7.82243 46.4053C8.42137 45.0875 9.5753 44.1255 10.9862 43.7676C11.3572 43.6736 11.7301 43.6275 12.0981 43.6275C12.7211 43.6275 13.33 43.7606 13.8849 44.0195L12.933 45.7044C12.712 46.0954 12.7791 46.5864 13.097 46.9034C13.4149 47.2224 13.9059 47.2883 14.2959 47.0673L15.9808 46.1144C16.3907 46.9963 16.4838 48.0151 16.2308 49.0131Z" fill="#EF2A82"/>
<path d="M59.9495 0.964828C59.9085 0.477918 59.5225 0.0919066 59.0356 0.0508914C58.6456 0.019837 49.3763 -0.682109 38.4751 4.33956C38.1782 4.4755 37.9671 4.74948 37.9091 5.07151C37.8511 5.39353 37.9551 5.72341 38.1861 5.95439L54.045 21.8132C54.234 22.0022 54.489 22.1062 54.7519 22.1062C54.8109 22.1062 54.87 22.1011 54.9289 22.0912C55.2509 22.0332 55.5239 21.8222 55.6608 21.5252C60.6835 10.624 59.9815 1.35377 59.9495 0.964828ZM54.4279 19.3664L40.633 5.57142C48.6134 2.20267 55.6018 1.97064 57.9906 2.01072C58.0306 4.40155 57.8056 11.368 54.4279 19.3664Z" fill="#EF2A82"/>
<path d="M44.1605 15.8387C40.7977 12.4759 35.3272 12.4759 31.9645 15.8387C28.6017 19.2014 28.6017 24.6719 31.9645 28.0347C33.6454 29.7166 35.8542 30.5566 38.062 30.5566C40.2709 30.5566 42.4787 29.7156 44.1605 28.0347C47.5233 24.6719 47.5233 19.2013 44.1605 15.8387ZM42.7467 26.6207C40.1639 29.2035 35.9612 29.2035 33.3784 26.6207C30.7957 24.038 30.7957 19.8353 33.3784 17.2525C34.6694 15.9616 36.3662 15.3157 38.0621 15.3157C39.7581 15.3157 41.4549 15.9616 42.7468 17.2525C45.3295 19.8353 45.3295 24.038 42.7467 26.6207Z" fill="#EF2A82"/>
<path d="M40.05 23.925C38.954 25.0229 37.1702 25.0219 36.0732 23.925C34.9773 22.8282 34.9773 21.0453 36.0732 19.9483C37.1692 18.8524 38.953 18.8514 40.05 19.9483C40.44 20.3392 41.0739 20.3392 41.4638 19.9483C41.8547 19.5574 41.8547 18.9254 41.4638 18.5344C39.5889 16.6586 36.5352 16.6586 34.6594 18.5344C32.7835 20.4102 32.7835 23.4631 34.6594 25.3389C35.5973 26.2768 36.8303 26.7458 38.0621 26.7458C39.295 26.7458 40.5269 26.2768 41.4638 25.3389C41.8547 24.9479 41.8547 24.316 41.4638 23.925C41.0738 23.5341 40.44 23.5341 40.05 23.925Z" fill="#EF2A82"/>
</g>
<defs>
<clipPath id="clip0">
<rect width="60" height="60" fill="white"/>
</clipPath>
</defs>
</svg>

<svg width="60" height="60" fill="none" xmlns="http://www.w3.org/2000/svg"><g clip-path="url(#clip0)" fill="#EF2A82"><path d="M19.064 23.391a.998.998 0 00-.825-.543l-8.412-.56a.982.982 0 00-.998.632l-6.064 15.5a.999.999 0 001.53 1.164l5.034-3.775 2.931.586a1 1 0 001.13-.624c1.574-4.122 3.469-7.956 5.63-11.393a1 1 0 00.044-.986zm-7.236 10.877l-2.546-.509a1.007 1.007 0 00-.796.181l-2.578 1.934 4.516-11.543 6.038.402c-1.74 2.945-3.294 6.142-4.634 9.535zm25.885 15.906l-.561-8.413a1.001 1.001 0 00-1.53-.781c-3.438 2.16-7.27 4.055-11.393 5.63a.998.998 0 00-.624 1.129l.586 2.93-3.775 5.033a1 1 0 001.165 1.534l15.5-6.064a1 1 0 00.632-.998zm-13.588 3.917l1.934-2.579a1 1 0 00.18-.796l-.51-2.545a67.529 67.529 0 009.536-4.633l.403 6.036-11.543 4.517zM28.998 30H22.26c-.363 0-.697.198-.874.515L12.93 45.709a1.001 1.001 0 00.874 1.486.986.986 0 00.517-.145l15.195-9.195a1 1 0 00.482-.855v-6a1 1 0 00-1-1zm-1 6.437L16.51 43.39 22.847 32h5.151v4.436z"/><path d="M59.95.964a1.001 1.001 0 00-.914-.914c-.332-.026-33.26-2.325-47.514 35.006a.999.999 0 00.227 1.064l4.755 4.755c.223.223.535.325.848.283.31-.045.583-.233.735-.508L22.85 32h5.147v4.45l-8.701 5.493a1.003 1.003 0 00-.173 1.553l4.755 4.754a.999.999 0 001.063.227C62.275 34.223 59.978 1.295 59.95.964zm-5.246 17.74c-3.509 8.682-11.538 20.484-29.872 27.672l-3.41-3.41 8.11-5.119c.29-.184.466-.503.466-.846v-6a1 1 0 00-1-1h-6.74a1 1 0 00-.876.518l-4.406 8.002-3.353-3.354C26.135 3.247 52.805 1.942 57.99 2.015c.037 2.332-.177 8.997-3.286 16.69zm-37.575 25.46a.997.997 0 00-.902-.392 1 1 0 00-.392-.901c-1.508-1.14-3.454-1.52-5.34-1.041A6.726 6.726 0 006 45.58L.09 58.584a.998.998 0 001.324 1.324l13.006-5.912a6.723 6.723 0 003.749-4.492c.479-1.885.1-3.832-1.04-5.34zm-.898 4.85a4.737 4.737 0 01-2.638 3.163l-10.58 4.809 4.81-10.58a4.734 4.734 0 014.275-2.779 4.22 4.22 0 011.787.392l-.952 1.685a1 1 0 001.363 1.363l1.685-.953c.41.882.503 1.901.25 2.9z"/><path d="M59.95.965a1.001 1.001 0 00-.914-.914c-.39-.031-9.66-.733-20.56 4.289a1 1 0 00-.29 1.614l15.859 15.86a1 1 0 001.616-.289c5.023-10.901 4.32-20.171 4.288-20.56zm-5.522 18.401L40.633 5.571c7.98-3.368 14.969-3.6 17.358-3.56.04 2.39-.185 9.357-3.563 17.355zM44.16 15.839c-3.362-3.363-8.833-3.363-12.195 0-3.363 3.362-3.363 8.833 0 12.196a8.594 8.594 0 006.097 2.522 8.6 8.6 0 006.099-2.522c3.362-3.363 3.362-8.834 0-12.196zM42.748 26.62a6.632 6.632 0 01-9.369 0 6.632 6.632 0 010-9.368 6.605 6.605 0 014.684-1.937c1.696 0 3.393.646 4.685 1.937a6.632 6.632 0 010 9.368z"/><path d="M40.05 23.925a2.813 2.813 0 01-3.977 0 2.816 2.816 0 010-3.977 2.815 2.815 0 013.977 0 .999.999 0 101.414-1.414 4.817 4.817 0 00-6.805 0 4.817 4.817 0 000 6.805 4.798 4.798 0 003.403 1.407 4.792 4.792 0 003.402-1.407.999.999 0 10-1.414-1.414z"/></g><defs><clipPath id="clip0"><path fill="#fff" d="M0 0h60v60H0z"/></clipPath></defs></svg>
